X: 1
T: Paddy Fahy's
M: 6/8
L: 1/8
R: jig
K: Dmaj
DFA dcA|AGE AGE|DFA dcA|AGE ~=C3|
A,DD EFG|AdB ~=c3|dfd AFF|GEC D2A:|
|:DFA fed|dcA AGE|AGE DdB|~=c3 GE=C|
A,DD EFG|AdB ~=c3|dfd AFF|GEC D2A:|
